!!!OTL: 836. Vergebliche Warnung der Mutter.
!!!ARE: Europa, Mitteleuropa, Deutschland
!!!SCT: E0836
!!!TXL: @@DE
!!!YEM: Copyright 1995, estate of Helmut Schaffrath.
**kern	**text
*ICvox	*
*M3/4	*
*k[f#c#]	*
*D:	*
=1	=1
!LO:TX:a:t=Mutter.	!
{4d	Han-
4f#	-ſel,
4a	dein
=2	=2
4g	Gre-
8gL	-te-
8eJ	.
4c#}	-lein,
=3	=3
{4e	iſt
4g	ein
4b/	fauls
=4	=4
4a	.Schlamper-
8aL	.
8gJ	.
4f#}	-lein,
=5	=5
{4g	wird
4e	nichts
4c#	be-
=6	=6
2.e	-ſchaf-
=7	=7
2d	-fen.
4r}	.
=8	=8
!LO:TX:a:t=Hans.	!
{4f#	Mut-
4a	-ter,
4dd	was
=9	=9
4ee	den-
8eeL	-ket
8ddJ	.
4cc#}	Jhr?
=10	=10
{4g#	Grad
4b/	drum
4dd	ge-
=11	=11
4cc#	-fal-
8cc#L	-lets
8bJ	.
4a}	mir,
=12	=12
{4dd	kann
4b/	ich
4g#	lang
=13	=13
2.b/	ſchla-
=14	=14
2a	-fen.
4r}	.
==	==
!!!AGN: Hochzeits -, Ehestands - Lied
!! modulierend; Form: AA'
!!!ONB: ESAC (Essen Associative Code) Database: ERK2
!!!AMT: simple triple
!!!AIN: vox
!!!EED: Helmut Schaffrath
!!!EEV: 1.0
!!!GTL: Hochzeits- und Ehrstandslieder, nebst Nonnenklagen
!!!URL-scan: https://rosdok.uni-rostock.de/mcrviewer/recordIdentifier/rosdok_ppn745177662/iview2/phys_0642.iview2?x=193.8995864193107&y=2103.892237285152&scale=0.7029437510502773&rotation=0&layout=singlePageLayout
!!!ENC: Anna Maria Matuszewska
!!!EEV: 2024/12/18
*-	*-
